X:1
T:Glad Angel Voices
T:Glad Angel Voices
T:George Crawford Hugg
T:F. E. Pettingell, 1889
T:Public Domain Courtesy of the Cyber Hymnal™
T:Public Domain Courtesy of the Cyber Hymnal™
C:George Crawford Hugg
Z:Public Domain
Z:Courtesy of the Cyber Hymnal™
%%score ( 1 2 ) ( 3 4 )
L:1/8
Q:1/4=100
M:6/8
K:Eb
V:1 treble 
V:2 treble 
V:3 bass 
V:4 bass 
V:1
 [EG]3 [DG]2 [DF] | E3- E2 [Ec] | [Ec]2 [Ec] [Ec]2 [DA] | [EG]3 [DF]2 [DF] | [EG]3 [E=A]3 | %5
w: 1.~On dew- y|plains * where|shep- herds were a-|bid- ing Be-|side their|
w: 2.~In low- ly|stall * a|new- born Babe was|sleep- ing, While|dumb, meek|
w: 3.~O star- lit|night, * how|sweet thy mu- sic|ring- ing! How|blest the|
 [DB]3- [DB]2 [Gc] |"^rall." [Fd]2 [Fc] [FB]2 [E=A] | [DB]3- [DB]2"^a tempo" [EG] | [EG]3 [DA]3 | %9
w: flocks, * with|ten- der, watch- ful|eye; * A-|woke the|
w: kine * un-|heed- ing stand a-|round; * A|mo- ther’s|
w: truth, * the|sto- ry of His|birth! * O|an- gel|
 [DF]3- [DF]2 [EG] | [FA]2 [FA] [Ad]2 [Ac] | [^Fc]3 [GB]2 [GB] | [GB]3 [Ge]3 | %13
w: song, * the|still night air di-|vid- ing, The|song of|
w: love * her|watch- ful vig- ils|keep- ing, While|thro’ the|
w: throng, * thro’|Hea- ven’s arch- es|wing- ing, May|the grand|
 [CE]3 !fermata![Ec]2 [EA] | [EG]2 [EG] [EF]2 [DF] | E6 ||"^Refrain" B3 F2 G | F3 E3 | %18
w: an- gels rang|thro’ the star- lit|sky.|||
w: night air glad|an- gel voic- es|sound.|Glad an- gel|voic- es,|
w: cho- rus re-|ech- o round the|earth!|||
 [Ec]3 [EB]2 [DA] | [EG]6 | [Ee]3 [Ed]2 [Ec] | [EB]3 E2 [DF] | [EG]2 [EB] [DB]2 [E=A] | [DB]6 | %24
w: ||||||
w: from thy do-|main,|Strike thy full|cho- rus, re-|peat thy sweet re-|frain;|
w: ||||||
 [EG]3 [DF]2 [DF] | E3 [Ec]3 | [EB]2 [EB] [DB]2 [DA] | [EG]6 | [Ee]3 [Ed]2 [Ec] | %29
w: |||||
w: Fair spir- its|hov- er|near each hap- py|throng,|This day as-|
w: |||||
 [EB]3 !fermata!E2 [CA] | [EG]2 [EG] [DF]2 [DF] | E6 |] %32
w: |||
w: sem- bled, to|sing thy Christ- mas|song.|
w: |||
V:2
 x6 | E3- E2 x | x6 | x6 | x6 | x6 | x6 | x6 | x6 | x6 | x6 | x6 | x6 | x6 | x6 | E6 || B3 F2 G | %17
 F3 E3 | x6 | x6 | x6 | x3 E2 x | x6 | x6 | x6 | E3 x3 | x6 | x6 | x6 | x3 E2 x | x6 | E6 |] %32
V:3
 [E,B,]3 [B,,B,]2 [=B,,A,] | [C,G,]3- [C,G,]2 A, | A,2 A, [G,B,]2 [F,B,] | %3
 [E,B,]3 [B,,B,]2 [B,,B,] | [E,B,]3 [^F,C]3 | [G,B,]3- [G,B,]2 [E,C] | [F,B,]2 [F,E] [F,D]2 [F,C] | %7
 [B,,B,]3- [B,,B,]2 [E,B,] | [E,B,]3 [F,B,]3 | [B,,B,]3- [B,,B,]2 [B,,B,] | %10
 [B,,B,]2 [B,,B,] [B,,B,]2 [B,,B,] | [E,=A,]3 [E,B,]2 [E,B,] | [E,B,]3 [C,C]3 | %13
 [C,G,]3 !fermata![A,,A,]2 [A,,C] | [B,,B,]2 [B,,B,] [B,,A,]2 [B,,A,] | [E,G,]6 || B,3 F,2 G, | %17
 F,3 E,3 | A,3 [G,B,]2 [F,B,] | [E,B,]6 | [C,G,]3 [A,,A,]2 [A,,A,] | [E,G,]3 [C,G,]2 [B,,B,] | %22
 [E,B,]2 [G,B,] [F,B,]2 [F,C] | [B,,B,]6 | [E,B,]3 [B,,B,]2 [=B,,A,] | [C,G,]3 [A,,A,]3 | %26
 [B,,G,]2 [B,,G,] [B,,B,]2 [B,,B,] | [E,B,]6 | [G,B,]3 [A,C]2 [^F,=A,] | %29
 [G,B,]3 !fermata![C,=A,]2 [F,_A,] | B,2 B, [B,,B,]2 [B,,A,] | [E,G,]6 |] %32
V:4
 x6 | x5 A, | A,2 A, x3 | x6 | x6 | x6 | x6 | x6 | x6 | x6 | x6 | x6 | x6 | x6 | x6 | x6 || %16
 B,3 F,2 G, | F,3 E,3 | A,3 x3 | x6 | x6 | x6 | x6 | x6 | x6 | x6 | x6 | x6 | x6 | x6 | B,2 B, x3 | %31
 x6 |] %32

